public/svg/phone.svg

<svg xmlns="http://www.w3.org/2000/svg" width="35" height="35" viewBox="0 0 35 35" fill="none">
<path opacity="0.3" fill-rule="evenodd" clip-rule="evenodd" d="M11.6667 3.64581C10.6599 3.64581 9.84375 4.46196 9.84375 5.46873V29.5312C9.84375 30.538 10.6599 31.3541 11.6667 31.3541H23.3333C24.3401 31.3541 25.1562 30.538 25.1562 29.5312V5.46873C25.1562 4.46196 24.3401 3.64581 23.3333 3.64581H11.6667Z" fill="#1B5BF7"/>
<path fill-rule="evenodd" clip-rule="evenodd" d="M11.6667 1.45844H23.3333C25.5482 1.45844 27.3438 3.25396 27.3438 5.46885V29.5313C27.3438 31.7462 25.5482 33.5418 23.3333 33.5418H11.6667C9.45177 33.5418 7.65625 31.7462 7.65625 29.5313V5.46885C7.65625 3.25396 9.45177 1.45844 11.6667 1.45844ZM11.6666 3.64594C10.6599 3.64594 9.84373 4.46208 9.84373 5.46885V29.5313C9.84373 30.5381 10.6599 31.3543 11.6666 31.3543H23.3333C24.3401 31.3543 25.1562 30.5381 25.1562 29.5313V5.46885C25.1562 4.46208 24.3401 3.64594 23.3333 3.64594H21.7V4.59999C21.7 5.15227 21.2523 5.59999 20.7 5.59999H14.3C13.7477 5.59999 13.3 5.15227 13.3 4.59999V3.64594H11.6666Z" fill="#1B5BF7"/>
</svg>

<svg xmlns="http://www.w3.org/2000/svg" width="35" height="35" fill="#1b5bf7" fill-rule="evenodd" xmlns:v="https://vecta.io/nano"><path opacity=".3" d="M11.667 3.646c-1.007 0-1.823.816-1.823 1.823v24.062c0 1.007.816 1.823 1.823 1.823h11.667c1.007 0 1.823-.816 1.823-1.823V5.469c0-1.007-.816-1.823-1.823-1.823H11.667z"/><path d="M11.667 1.458h11.667a4.01 4.01 0 0 1 4.011 4.01v24.062a4.01 4.01 0 0 1-4.011 4.011H11.667a4.01 4.01 0 0 1-4.01-4.011V5.469a4.01 4.01 0 0 1 4.01-4.01zm0 2.188c-1.007 0-1.823.816-1.823 1.823v24.062c0 1.007.816 1.823 1.823 1.823h11.667c1.007 0 1.823-.816 1.823-1.823V5.469c0-1.007-.816-1.823-1.823-1.823H21.7V4.6a1 1 0 0 1-1 1h-6.4a1 1 0 0 1-1-1v-.954h-1.633z"/></svg>
